communes/1030.svg

<?xml version="1.0" encoding="UTF-8"?>
<svg width="520" height="585" version="1.1" viewBox="0 0 100 112.5" xmlns="http://www.w3.org/2000/svg" xmlns:cc="http://creativecommons.org/ns#" xmlns:dc="http://purl.org/dc/elements/1.1/" xmlns:rdf="http://www.w3.org/1999/02/22-rdf-syntax-ns#">
<metadata>
<rdf:RDF>
<cc:Work rdf:about="">
<dc:format>image/svg+xml</dc:format>
<dc:type rdf:resource="http://purl.org/dc/dcmitype/StillImage"/>
</cc:Work>
</rdf:RDF>
</metadata>
<title>Wappen von Hitzkirch</title>
<desc>Wappen der Schweizer Gemeinde Hitzkirch, Kanton Luzern</desc>
<defs>
<clipPath id="a">
<path d="m98 2v60.5a48 48 0 0 1-47.5 48v-108.5z"/>
</clipPath>
</defs>
<path d="m0 0h100v62.5a50 50 0 0 1-100 0"/>
<path d="m2 2v60.5a48 48 0 0 0 47.5 48v-108.5" fill="#0056ad"/>
<path d="m61 0a150 150 0 0 1 10 49 100 100 0 0 1-21-5v16a100 100 0 0 1 21-5 150 150 0 0 1-12 57h30a150 150 0 0 1-12-57 100 100 0 0 1 23 6v-18a100 100 0 0 1-23 6 150 150 0 0 1 10-49h13v112h-50v-112" clip-path="url(#a)" fill="#fff"/>
</svg>

<?xml version="1.0" encoding="UTF-8" standalone="no"?>
<svg
   xmlns:dc="http://purl.org/dc/elements/1.1/"
   xmlns:cc="http://creativecommons.org/ns#"
   xmlns:rdf="http://www.w3.org/1999/02/22-rdf-syntax-ns#"
   xmlns:svg="http://www.w3.org/2000/svg"
   xmlns="http://www.w3.org/2000/svg"
   xmlns:sodipodi="http://sodipodi.sourceforge.net/DTD/sodipodi-0.dtd"
   xmlns:inkscape="http://www.inkscape.org/namespaces/inkscape"
   version="1.1"
   width="520"
   height="585"
   viewBox="0,0 100,112.5"
   id="svg17"
   sodipodi:docname="1030.svg">
  <metadata
     id="metadata21">
    <rdf:RDF>
      <cc:Work
         rdf:about="">
        <dc:format>image/svg+xml</dc:format>
        <dc:type
           rdf:resource="http://purl.org/dc/dcmitype/StillImage" />
      </cc:Work>
    </rdf:RDF>
  </metadata>
  <sodipodi:namedview
     pagecolor="#ffffff"
     bordercolor="#666666"
     borderopacity="1"
     objecttolerance="10"
     gridtolerance="10"
     guidetolerance="10"
     inkscape:pageopacity="0"
     inkscape:pageshadow="2"
     inkscape:window-width="640"
     inkscape:window-height="480"
     id="namedview19" />
  <title
     id="title2">Wappen von Hitzkirch</title>
  <desc
     id="desc4">Wappen der Schweizer Gemeinde Hitzkirch, Kanton Luzern</desc>
  <defs
     id="defs9">
    <clipPath
       id="cpSchild">
      <path
         d="M 98,2 V 62.5 a 48,48 0 0,1 -47.5,48 V 2 z"
         id="path6" />
    </clipPath>
  </defs>
  <path
     d="M 0,0 H 100 V 62.5 A 50,50 0 0,1 0,62.5"
     id="path11" />
  <path
     d="M 2,2 V 62.5 a 48,48 0 0,0 47.5,48 V 2"
     fill="#0056ad"
     id="path13" />
  <path
     d="M 61,0 A 150,150 0 0,1 71,49 100,100 0 0,1 50,44 V 60 A 100,100 0 0,1 71,55 150,150 0 0,1 59,112 H 89 A 150,150 0 0,1 77,55 100,100 0 0,1 100,61 V 43 A 100,100 0 0,1 77,49 150,150 0 0,1 87,0 h 13 V 112 H 50 V 0"
     fill="white"
     clip-path="url(#cpSchild)"
     id="path15" />
</svg>
